X: 36
M: 2/4
L: 1/16
K: G
uD2 |\
|: (ufg) |\
afdf gfed | ^cABc defg | afdf gfed | ^cABc d2(fg) |
afdf gfed | ^cABc defg | afdf gfed | ^cABc d2 :|


